; generated by PrusaSlicer 2.9.4 on 2026-02-20 at 21:51:41 UTC

; 

; external perimeters extrusion width = 3.38mm
; perimeters extrusion width = 3.38mm
; infill extrusion width = 3.38mm
; solid infill extrusion width = 3.38mm
; top infill extrusion width = 3.00mm
; first layer extrusion width = 3.15mm

M73 P0 R24
M104 S240 ; set temperature
;TYPE:Custom
G28 ; home all axes
G1 Z5 F5000 ; lift nozzle
M109 S240 ; set temperature and wait for it to be reached
G21 ; set units to millimeters
G90 ; use absolute coordinates
M82 ; use absolute distances for extrusion
G92 E0
; Filament gcode
M107
;LAYER_CHANGE
;Z:1
;HEIGHT:1
G1 X238.06 Y219.014 F7800
G1 Z1
M73 P0 R23
;TYPE:Skirt/Brim
;WIDTH:3.15
G1 F1800
G1 X244.428 Y213.108 E10.59936
G1 X251.725 Y208.397 E21.19924
G1 X264.511 Y203.743 E37.80478
G1 X273.129 Y202.661 E48.40473
G1 X281.804 Y203.093 E59.00479
G1 X293.788 Y206.304 E74.14592
G1 X305.572 Y213.108 E90.75216
G1 X314.345 Y221.881 E105.8935
G1 X321.149 Y233.665 E122.49974
G1 X350.592 Y350.164 E269.14507
G1 X352.526 Y360.938 E282.50379
G1 X352.988 Y370.732 E294.46965
G1 X350.895 Y387.492 E315.08237
G1 X347.048 Y399.382 E330.3335
G1 X338.927 Y414.192 E350.94653
G1 X332.816 Y421.859 E362.91185
G1 X326.837 Y427.716 E373.12628
G1 X315.685 Y436.051 E390.1174
G1 X300.405 Y443.249 E410.73053
G1 X288.302 Y446.36 E425.98114
M73 P1 R23
G1 X271.445 Y447.422 E446.59415
G1 X259.047 Y445.854 E461.84516
G1 X242.985 Y440.629 E482.45825
G1 X232.037 Y434.604 E497.70878
G1 X219.03 Y423.828 E518.32244
G1 X211.073 Y414.192 E533.57332
G1 X205.972 Y405.819 E545.53865
G1 X201.961 Y396.872 E557.50457
G1 X197.782 Y380.506 E578.11844
G1 X197.016 Y368.033 E593.36913
G1 X197.817 Y358.261 E605.33484
G1 X199.408 Y350.164 E615.40535
G1 X226.29 Y241.964 E751.46663
G1 X230.944 Y229.177 E768.07332
G1 X237.802 Y219.383 E782.66483
G92 E0
G92 E0
G1 X285.054 Y267.018 F7800
;TYPE:Perimeter
;WIDTH:3.15
G1 F1800
G1 X285.041 Y267.03 E.02159
G1 X281.054 Y269.091 E5.49897
G1 X277.657 Y269.929 E9.76894
G1 X272.667 Y270.008 E15.85948
G1 X268.518 Y268.932 E21.09041
G1 X264.959 Y267.03 E26.01514
G1 X261.578 Y263.996 E31.55906
G1 X259.205 Y260.447 E36.76924
G1 X257.815 Y256.693 E41.65458
G1 X257.299 Y252.192 E47.18356
G1 X257.659 Y249.225 E50.83103
G1 X257.972 Y247.709 E52.72017
G1 X259.581 Y243.803 E57.87564
G1 X261.897 Y240.543 E62.75592
G1 X264.921 Y237.903 E67.65489
G1 X268.965 Y235.81 E73.212
G1 X272.139 Y235.028 E77.20137
G1 X273.397 Y234.849 E78.75209
G1 X277.657 Y234.977 E83.95333
G1 X281.608 Y236.04 E88.94658
G1 X285.055 Y237.886 E93.71855
G1 X288.48 Y240.993 E99.36202
G1 X290.398 Y243.772 E103.48284
G1 X292.186 Y248.217 E109.32992
G1 X292.699 Y252.729 E114.87183
G1 X292.282 Y256.166 E119.09709
G1 X290.547 Y260.918 E125.27087
G1 X288.068 Y264.394 E130.48127
G1 X285.394 Y266.723 E134.80887
M73 P2 R23
G92 E0
G1 X285.343 Y266.665 F7800
G1 X285.012 Y266.958
G1 X284.701 Y267.121
G1 X283.367 Y264.58
;TYPE:External perimeter
G1 F1800
G1 X283.236 Y264.696 E.21354
G1 X280.067 Y266.311 E4.55424
G1 X276.954 Y267.078 E8.46695
G1 X273.046 Y267.078 E13.23626
G1 X269.603 Y266.186 E17.57681
G1 X266.473 Y264.495 E21.91847
G1 X263.839 Y262.105 E26.25904
G1 X261.853 Y259.153 E30.60106
G1 X260.632 Y255.812 E34.94216
G1 X260.246 Y252.63 E38.85393
G1 X260.717 Y248.75 E43.62383
G1 X261.853 Y245.753 E47.53529
G1 X263.839 Y242.801 E51.87731
G1 X266.764 Y240.21 E56.64606
G1 X269.603 Y238.72 E60.55895
G1 X273.046 Y237.827 E64.89981
G1 X277.158 Y237.878 E69.91847
G1 X280.397 Y238.72 E74.00271
G1 X283.462 Y240.354 E78.24158
G1 X285.927 Y242.537 E82.25995
G1 X287.982 Y245.44 E86.60059
G1 X289.368 Y249.094 E91.36994
G1 X289.754 Y252.63 E95.7109
G1 X289.283 Y256.156 E100.05224
G1 X287.982 Y259.466 E104.39258
G1 X286.161 Y262.105 E108.30554
G1 X283.704 Y264.281 E112.31094
G1 X281.096 Y265.764 F7800
G92 E0
G1 X282.433 Y268.311
G1 X300.532 Y318.54
G1 X302.421 Y322.54
G1 X304.338 Y325.24
G1 X304.982 Y326.147
G1 X304.921 Y326.199
;TYPE:Perimeter
G1 F1800
G1 X312.841 Y333.777 E13.37727
G1 X317.035 Y338.824 E21.3857
G1 X320.552 Y344.34 E29.36933
G1 X323.349 Y350.253 E37.35214
G1 X325.383 Y356.471 E45.33625
G1 X326.62 Y362.895 E53.3201
G1 X327.041 Y369.423 E61.3034
G1 X326.64 Y375.953 E69.2876
G1 X325.423 Y382.381 E77.27167
G1 X323.41 Y388.605 E85.25481
G1 X320.631 Y394.528 E93.2393
G1 X317.131 Y400.055 E101.22313
G1 X312.966 Y405.099 E109.20616
G1 X308.2 Y409.581 E117.19049
G1 X302.91 Y413.429 E125.17371
G1 X297.179 Y416.584 E133.1576
G1 X291.097 Y418.994 E141.14153
G1 X284.761 Y420.623 E149.12544
G1 X278.271 Y421.444 E157.10894
G1 X271.729 Y421.444 E165.09278
G1 X265.239 Y420.623 E173.07628
G1 X258.903 Y418.994 E181.06019
G1 X252.821 Y416.584 E189.04412
G1 X247.09 Y413.429 E197.02801
G1 X241.8 Y409.581 E205.01123
G1 X237.034 Y405.099 E212.99556
G1 X232.869 Y400.055 E220.97859
G1 X229.369 Y394.528 E228.96242
G1 X226.59 Y388.605 E236.94691
G1 X224.577 Y382.381 E244.93005
G1 X223.36 Y375.953 E252.91412
G1 X222.959 Y369.423 E260.89832
G1 X223.38 Y362.895 E268.88162
G1 X224.617 Y356.471 E276.86547
G1 X226.651 Y350.253 E284.84958
G1 X229.448 Y344.34 E292.83239
G1 X232.965 Y338.824 E300.81602
G1 X237.159 Y333.777 E308.82445
G1 X245.325 Y325.9 E322.67102
G1 X247.545 Y322.774 E327.35014
G1 X249.129 Y319.508 E331.78
G1 X250.662 Y314.564 E338.09704
G1 X251.105 Y310.062 E343.6178
G1 X251.105 Y252.65 E413.68322
G1 X251.485 Y248.307 E419.00365
M73 P3 R23
G1 X252.562 Y244.286 E424.08384
G1 X254.321 Y240.514 E429.1631
G1 X256.708 Y237.104 E434.24292
G1 X259.652 Y234.161 E439.32311
G1 X263.061 Y231.774 E444.40193
G1 X266.833 Y230.015 E449.48119
G1 X270.854 Y228.938 E454.56138
G1 X275 Y228.575 E459.6405
G1 X279.146 Y228.938 E464.71962
G1 X283.167 Y230.015 E469.79981
G1 X286.939 Y231.774 E474.87907
G1 X290.348 Y234.161 E479.95789
G1 X293.292 Y237.104 E485.03808
G1 X295.679 Y240.514 E490.1179
G1 X297.438 Y244.286 E495.19716
G1 X298.515 Y248.307 E500.27735
G1 X298.895 Y252.65 E505.59778
G1 X298.895 Y310.062 E575.6632
G1 X299.371 Y314.664 E581.30943
G1 X300.375 Y318.37 E585.99525
G1 X302.553 Y322.912 E592.14264
G1 X304.639 Y325.85 E596.54001
G92 E0
G1 X304.727 Y325.788 F7800
G1 X304.982 Y326.147
G1 X305.163 Y326.325
G1 X307.164 Y324.29
;TYPE:External perimeter
G1 F1800
G1 X307.254 Y324.415 E.18798
G1 X314.989 Y331.769 E13.21319
G1 X319.411 Y337.089 E21.6557
G1 X323.126 Y342.917 E30.09029
G1 X326.082 Y349.165 E38.52565
G1 X328.23 Y355.735 E46.9613
G1 X329.537 Y362.521 E55.39512
G1 X329.982 Y369.419 E63.83092
G1 X329.559 Y376.317 E72.26503
G1 X328.273 Y383.108 E80.70004
G1 X326.146 Y389.685 E89.13589
G1 X323.21 Y395.942 E97.57078
G1 X319.512 Y401.781 E106.00558
G1 X315.111 Y407.111 E114.44113
G1 X310.076 Y411.846 E122.87613
G1 X304.487 Y415.912 E131.31094
G1 X298.432 Y419.245 E139.74598
G1 X292.007 Y421.791 E148.18021
G1 X285.313 Y423.512 E156.61522
G1 X278.456 Y424.379 E165.05011
G1 X271.544 Y424.379 E173.48549
G1 X264.687 Y423.512 E181.92038
G1 X257.993 Y421.791 E190.35539
G1 X251.568 Y419.245 E198.78962
G1 X245.513 Y415.912 E207.22466
G1 X239.924 Y411.846 E215.65947
G1 X234.889 Y407.111 E224.09447
G1 X230.488 Y401.781 E232.53002
G1 X226.79 Y395.942 E240.96482
G1 X223.854 Y389.685 E249.39971
G1 X221.727 Y383.108 E257.83556
G1 X220.441 Y376.317 E266.27057
G1 X220.018 Y369.419 E274.70468
G1 X220.463 Y362.521 E283.14048
G1 X221.77 Y355.735 E291.5743
G1 X223.918 Y349.165 E300.00995
G1 X226.874 Y342.917 E308.44531
G1 X230.589 Y337.089 E316.8799
M73 P4 R23
G1 X235.011 Y331.769 E325.32241
G1 X242.931 Y324.201 E338.69124
G1 X245.129 Y321.107 E343.32297
G1 X246.485 Y318.234 E347.20008
G1 X247.841 Y313.642 E353.04337
G1 X248.169 Y309.932 E357.5887
G1 X248.169 Y252.522 E427.65168
G1 X248.583 Y247.795 E433.44258
G1 X249.793 Y243.278 E439.14947
G1 X251.769 Y239.041 E444.85497
M73 P4 R22
G1 X254.451 Y235.21 E450.56216
G1 X257.758 Y231.904 E456.26885
G1 X261.588 Y229.222 E461.97504
G1 X265.825 Y227.246 E467.68054
G1 X270.342 Y226.036 E473.38743
G1 X275 Y225.628 E479.0938
G1 X279.658 Y226.036 E484.80017
G1 X284.175 Y227.246 E490.50706
G1 X288.412 Y229.222 E496.21256
G1 X292.242 Y231.904 E501.91875
G1 X295.549 Y235.21 E507.62544
G1 X298.231 Y239.041 E513.33263
G1 X300.207 Y243.278 E519.03813
G1 X301.417 Y247.795 E524.74502
G1 X301.831 Y252.522 E530.53592
G1 X301.831 Y309.932 E600.5989
G1 X302.17 Y313.771 E605.30223
G1 X303.196 Y317.558 E610.09049
G1 X304.871 Y321.107 E614.87983
G1 X306.901 Y323.925 E619.11832
G1 X309.007 Y326.062 F7800
G92 E0
G1 X306.986 Y328.117
G1 X304.982 Y326.147
G1 X302.421 Y322.54
G1 X300.532 Y318.54
G1 X299.375 Y314.269
G1 X299.002 Y310.057
G1 X292.936 Y236.598
G1 X286.432 Y231.419
G1 X285.22 Y230.854
G1 X284.803 Y231.75
;TYPE:Solid infill
;WIDTH:3.17877
G1 F1800
G1 X291.646 Y238.593 E11.92611
G1 X293.765 Y241.619 E16.47864
G1 X295.361 Y245.042 E21.133
G1 X295.895 Y247.034 E23.67453
G1 X278.639 Y229.777 E53.74947
G92 E0
G1 X279.138 Y234.469 F7800
G1 F1800
G1 X275.498 Y230.828 E6.34473
G1 X271.565 Y231.088 E11.20218
G1 X273.15 Y232.672 E13.96368
G1 X269.703 Y233.418 E18.30996
G1 X268.211 Y231.925 E20.91112
G1 X265.268 Y233.174 E24.85106
G1 X266.604 Y234.51 E27.17947
G1 X263.877 Y235.976 E30.99495
G1 X262.65 Y234.749 E33.13339
G1 X260.318 Y236.608 E36.80865
G1 X261.609 Y237.9 E39.0595
G1 X260.191 Y239.15 E41.38902
G1 X259.567 Y240.049 E42.73764
G1 X258.254 Y238.736 E45.02596
G1 X256.527 Y241.202 E48.73609
G1 X257.848 Y242.523 E51.03835
G1 X257.363 Y243.22 E52.08479
G1 X256.517 Y245.384 E54.94816
G1 X255.127 Y243.994 E57.37068
G1 X254.639 Y245.042 E58.79535
G1 X254.078 Y247.136 E61.46691
G1 X255.523 Y248.581 E63.98528
G1 X255.198 Y252.448 E68.76761
G1 X252.263 Y249.514 E73.88191
G92 E0
G1 X257.653 Y250.168 F7800
G1 X257.887 Y248.235
G1 X259.394 Y244.262
G1 X261.808 Y240.765
G1 X264.988 Y237.948
G1 X268.75 Y235.973
G1 X272.876 Y234.957
G1 X277.124 Y234.957
G1 X281.25 Y235.973
G1 X285.012 Y237.948
G1 X288.192 Y240.765
G1 X290.606 Y244.262
M73 P5 R22
G1 X292.113 Y248.235
G1 X292.149 Y248.538
G1 X293.092 Y248.423
G1 F1800
G1 X296.624 Y251.955 E6.15563
G1 X296.694 Y256.216 E11.40742
G1 X294.674 Y254.197 E14.92704
G1 X294.465 Y256.465 E17.73387
G1 X294.126 Y257.84 E19.4791
G1 X296.694 Y260.408 E23.95466
G1 X296.694 Y264.6 E29.12071
G1 X292.938 Y260.844 E35.66674
G1 X292.504 Y261.926 E37.10342
G1 X291.41 Y263.509 E39.47478
G1 X296.694 Y268.792 E48.68296
G1 X296.694 Y272.984 E53.84901
G1 X289.601 Y265.891 E66.21082
G1 X287.415 Y267.898 E69.86797
G1 X296.694 Y277.176 E86.03871
G1 X296.694 Y281.368 E91.20476
G1 X284.923 Y269.598 E111.7186
G1 X282.137 Y271.003 E115.56384
G1 X296.694 Y285.56 E140.93405
G1 X296.694 Y289.752 E146.1001
G1 X278.804 Y271.862 E177.27912
G1 X277.259 Y272.23 E179.23638
G1 X274.98 Y272.23 E182.04493
G1 X296.694 Y293.944 E219.88849
G1 X296.694 Y298.136 E225.05454
G1 X270.194 Y271.637 E271.23835
G1 X268.375 Y271.213 E273.5401
G1 X264.345 Y269.229 E279.07573
G1 X263.094 Y268.366 E280.94866
G1 X259.948 Y265.477 E286.21238
G1 X257.269 Y261.496 E292.12583
G1 X255.657 Y257.099 E297.89718
G1 X253.306 Y254.749 E301.99367
G1 X253.306 Y258.941 E307.15972
G1 X296.694 Y302.328 E382.77625
G1 X296.694 Y306.52 E387.9423
G1 X253.306 Y263.133 E463.55883
G1 X253.306 Y267.325 E468.72488
G1 X296.781 Y310.8 E544.49391
G1 X297.333 Y315.544 E550.37966
M73 P6 R22
G1 X253.306 Y271.517 E627.11072
G1 X253.306 Y275.709 E632.27677
G1 X299.745 Y322.147 E713.21064
G1 X300.726 Y324.143 E715.95146
G1 X303.464 Y327.89 E721.67054
G1 X311.23 Y335.284 E734.88508
G1 X315.253 Y340.124 E742.64112
G1 X318.285 Y344.88 E749.59195
G1 X253.306 Y279.901 E862.83854
G1 X253.306 Y284.093 E868.00459
G1 X321.794 Y352.58 E987.36586
G1 X323.247 Y357.024 E993.12776
G1 X323.534 Y358.512 E994.99531
G1 X253.306 Y288.285 E1117.38909
G1 X253.306 Y292.477 E1122.55514
M73 P7 R22
G1 X324.461 Y363.631 E1246.56451
G1 X324.75 Y368.113 E1252.09941
G1 X253.306 Y296.668 E1376.6142
G1 X253.306 Y300.86 E1381.78025
G1 X324.664 Y372.218 E1506.14428
G1 X324.369 Y376.115 E1510.96052
G1 X253.306 Y305.052 E1634.81042
G1 X253.306 Y309.244 E1639.97647
M73 P8 R22
G1 X323.702 Y379.64 E1762.66391
G1 X323.286 Y381.835 E1765.41709
G1 X322.9 Y383.03 E1766.96468
G1 X252.991 Y313.121 E1888.80337
G1 X252.8 Y315.072 E1891.2192
M73 P8 R21
G1 X252.321 Y316.643 E1893.24323
G1 X321.875 Y386.197 E2014.46322
G1 X320.695 Y389.209 E2018.44977
G1 X251.34 Y319.854 E2139.32294
G1 X249.99 Y322.696 E2143.20036
M73 P9 R21
G1 X319.356 Y392.062 E2264.0927
G1 X317.872 Y394.77 E2267.89818
G1 X248.417 Y325.315 E2388.94563
G1 X246.648 Y327.737 E2392.64177
G1 X316.247 Y397.336 E2513.94018
G1 X314.501 Y399.782 E2517.64371
G1 X244.524 Y329.806 E2639.60004
G1 X242.376 Y331.85 E2643.25411
G1 X312.605 Y402.078 E2765.64963
M73 P10 R21
G1 X310.618 Y404.284 E2769.30843
G1 X240.229 Y333.895 E2891.98367
G1 X238.16 Y336.017 E2895.63604
G1 X308.458 Y406.316 E3018.15356
G1 X306.237 Y408.287 E3021.813
G1 X236.257 Y338.307 E3143.77543
G1 X234.41 Y340.652 E3147.45406
G1 X303.81 Y410.052 E3268.40565
G1 X301.344 Y411.778 E3272.11508
M73 P11 R21
G1 X232.778 Y343.212 E3391.61316
G1 X231.187 Y345.812 E3395.36959
G1 X298.641 Y413.266 E3512.92966
G1 X295.904 Y414.721 E3516.74961
G1 X229.841 Y348.658 E3631.88542
G1 X228.542 Y351.552 E3635.79467
G1 X292.902 Y415.911 E3747.96159
G1 X289.842 Y417.044 E3751.9828
M73 P12 R21
G1 X227.509 Y354.711 E3860.6179
G1 X226.572 Y357.965 E3864.79094
G1 X286.507 Y417.901 E3969.24763
G1 X283.036 Y418.622 E3973.61646
G1 X225.895 Y361.48 E4073.20371
G1 X225.437 Y365.214 E4077.83982
M73 P12 R20
G1 X279.315 Y419.092 E4171.73939
G1 X275.273 Y419.242 E4176.72401
G1 X225.182 Y369.152 E4264.02265
G1 X225.42 Y373.581 E4269.48864
M73 P13 R20
G1 X270.967 Y419.128 E4348.86879
G1 X266.168 Y418.521 E4354.83
G1 X226.068 Y378.421 E4424.71702
G1 X226.714 Y381.835 E4428.99895
G1 X227.395 Y383.94 E4431.72544
G1 X260.616 Y417.162 E4489.62448
G1 X253.91 Y414.647 E4498.45075
G1 X230.043 Y390.78 E4540.0466
G1 X231.303 Y393.467 E4543.70394
G1 X234.655 Y398.76 E4551.42482
G1 X238.562 Y403.491 E4558.98622
G1 X247.991 Y412.92 E4575.41925
;LAYER_CHANGE
;Z:2.2
;HEIGHT:1.2
G92 E0
G1 Z2.2 F7800
M104 S230 ; set temperature
G1 X284.86 Y266.737
;TYPE:Perimeter
;WIDTH:3.38
G1 F3600
G1 X284.846 Y266.749 E.02872
G1 X280.919 Y268.777 E6.91384
G1 X277.143 Y269.678 E12.96127
G1 X273.472 Y269.719 E18.68035
G1 X268.626 Y268.607 E26.4257
G1 X265.154 Y266.749 E32.56018
G1 X262.407 Y264.364 E38.22732
G1 X259.5 Y260.273 E46.04544
G1 X258.078 Y256.334 E52.56926
G1 X257.641 Y252.175 E59.08386
G1 X258.146 Y248.299 E65.17297
G1 X259.398 Y244.902 E70.81283
G1 X262.168 Y240.754 E78.58298
G1 X265.113 Y238.185 E84.67097
G1 X268.904 Y236.252 E91.30003
G1 X273.163 Y235.187 E98.13903
G1 X277.004 Y235.211 E104.1227
G1 X281.02 Y236.204 E110.56727
G1 X284.285 Y237.827 E116.24727
G1 X285.382 Y238.585 E118.32446
G1 X288.346 Y241.394 E124.68593
G1 X290.602 Y244.902 E131.18325
G1 X291.854 Y248.299 E136.82311
G1 X292.357 Y252.747 E143.79642
G1 X291.786 Y256.884 E150.30218
G1 X290.602 Y260.004 E155.50075
G1 X290.236 Y260.774 E156.82887
G1 X287.8 Y264.18 E163.35216
G1 X285.199 Y266.442 E168.72194
G92 E0
G1 X285.135 Y266.369 F7800
G1 X285.084 Y266.414
G1 X283.071 Y264.142
;TYPE:External perimeter
G1 F1800
G1 X280.22 Y265.686 E5.0508
G1 X276.528 Y266.597 E10.97474
G1 X273.099 Y266.551 E16.31695
G1 X270.132 Y265.82 E21.07719
G1 X266.765 Y264.053 E27.00076
G1 X264.228 Y261.745 E32.34367
G1 X262.492 Y259.23 E37.10428
G1 X261.234 Y256.04 E42.44615
G1 X260.775 Y252.641 E47.78921
G1 X261.234 Y248.866 E53.71326
G1 X262.492 Y245.676 E59.05513
G1 X264.228 Y243.161 E63.81574
G1 X267.074 Y240.639 E69.73956
G1 X269.827 Y239.237 E74.55232
G1 X273.471 Y238.309 E80.41017
G1 X276.901 Y238.355 E85.75394
M73 P14 R20
G1 X279.805 Y239.087 E90.41933
G1 X283.261 Y240.876 E96.48169
G1 X285.722 Y243.155 E101.70683
G1 X287.508 Y245.676 E106.51974
G1 X288.766 Y248.866 E111.86161
G1 X289.225 Y252.265 E117.20467
G1 X288.766 Y256.04 E123.12872
G1 X287.508 Y259.23 E128.47059
G1 X285.523 Y262.026 E133.81228
G1 X283.432 Y263.878 E138.16362
G1 X280.82 Y265.353 F7800
G92 E0
G1 X282.219 Y268.019
G1 X300.872 Y318.414
G1 X302.734 Y322.357
G1 X304.812 Y325.284
