; generated by PrusaSlicer 2.9.2 on 2025-05-10 at 11:04:15 UTC


;
;

;
;

;
;

;
;
; 

; external perimeters extrusion width = 0.45mm
; perimeters extrusion width = 0.45mm
; infill extrusion width = 0.45mm
; solid infill extrusion width = 0.45mm
; top infill extrusion width = 0.40mm
; first layer extrusion width = 0.42mm

; external perimeters extrusion width = 0.45mm
; perimeters extrusion width = 0.45mm
; infill extrusion width = 0.45mm
; solid infill extrusion width = 0.45mm
; top infill extrusion width = 0.40mm
; first layer extrusion width = 0.42mm

; external perimeters extrusion width = 0.45mm
; perimeters extrusion width = 0.45mm
; infill extrusion width = 0.45mm
; solid infill extrusion width = 0.45mm
; top infill extrusion width = 0.40mm
; first layer extrusion width = 0.42mm

; external perimeters extrusion width = 0.45mm
; perimeters extrusion width = 0.45mm
; infill extrusion width = 0.45mm
; solid infill extrusion width = 0.45mm
; top infill extrusion width = 0.40mm
; first layer extrusion width = 0.42mm

M73 P0 R99
M73 Q0 S99
M201 X2500 Y2500 Z400 E5000 ; sets maximum accelerations, mm/sec^2
M203 X180 Y180 Z12 E80 ; sets maximum feedrates, mm / sec
M204 P2000 R1250 T2500 ; sets acceleration (P, T) and retract acceleration (R), mm/sec^2
M205 X8.00 Y8.00 Z2.00 E10.00 ; sets the jerk limits, mm/sec
M205 S0 T0 ; sets the minimum extruding and travel feed rate, mm/sec

M486 S0
M486 Aobyc_easy-130mm.stl
M486 S-1
M486 S1
M486 Aobyc_easy-130mm.stl
M486 S-1
M486 S2
M486 Aobyc_easy-130mm.stl
M486 S-1
M486 S3
M486 Aobyc_easy-130mm.stl
M486 S-1

;TYPE:Custom
M862.3 P "MINI" ; printer model check
G90 ; use absolute coordinates
M83 ; extruder relative mode
M104 S170 ; set extruder temp for bed leveling
M140 S85 ; set bed temp
M109 R170 ; wait for bed leveling temp
M190 S85 ; wait for bed temp
M204 T1250 ; set travel acceleration
G28 ; home all without mesh bed level
G29 ; mesh bed leveling 
M204 T2500 ; restore travel acceleration
M104 S210 ; set extruder temp
G92 E0
G1 Y-2 X179 F2400
G1 Z3 F720
M109 S210 ; wait for extruder temp

; intro line
G1 X170 F1000
G1 Z0.2 F720
G1 X110 E8 F900
G1 X40 E10 F700
G92 E0

M221 S95 ; set flow
G21 ; set units to millimeters
G90 ; use absolute coordinates
M83 ; use relative distances for extrusion
M900 K0.2 ; Filament gcode

M107
;LAYER_CHANGE
;Z:0.2
;HEIGHT:0.2
G1 E-4.5 F2700
G1 Z.4 F720
G1 X24.1 Y23.174 F9000
G1 Z.2 F720
G1 E4.5 F1500
M204 P600
;TYPE:Skirt/Brim
;WIDTH:0.42
G1 F1200
G3 X25.36 Y22.406 I2.087 J2.007 E.04678
G1 X26.433 Y22.105 E.03494
G1 X34.024 Y20.539 E.24302
G1 X34.59 Y20.484 E.01783
G1 X145.042 Y25.076 E3.46614
G3 X156.724 Y37.254 I-.559 J12.229 E.58377
G1 X156.724 Y142.746 E3.30763
G3 X145.042 Y154.924 I-12.241 J-.051 E.58377
G1 X34.679 Y159.514 E3.46335
G1 X34.024 Y159.461 E.0206
G1 X25.84 Y157.757 E.26211
G3 X23.851 Y156.58 I1.384 J-4.608 E.07318
G3 X23.312 Y155.093 I2.292 J-1.672 E.05026
G1 X23.316 Y24.813 E4.08484
G3 X24.059 Y23.218 I2.871 J.368 E.05606
M204 P1000
G1 E-3.15 F2700
;WIPE_START
G1 F7200
G1 X24.1 Y23.174 E-.02143
G3 X25.36 Y22.406 I2.087 J2.006 E-.53155
G1 X26.433 Y22.105 E-.39701
G1 X27.533 Y21.878 E-.40001
;WIPE_END
G1 Z.4 F720
M486 S1
G1 X30.495 Y24.51 F9000
G1 Z.2 F720
G1 E4.5 F1500
M204 P600
;TYPE:Perimeter
;WIDTH:0.419999
G1 F1200
G1 X34.531 Y23.684 E.12917
G1 X34.954 Y23.682 E.01326
G1 X144.885 Y28.255 E3.44978
G1 X146.05 Y28.378 E.03673
G1 X147.166 Y28.642 E.03596
G1 X148.239 Y29.047 E.03596
G1 X149.252 Y29.584 E.03595
G1 X150.189 Y30.245 E.03595
G1 X151.033 Y31.021 E.03595
G1 X151.773 Y31.897 E.03595
G1 X152.395 Y32.86 E.03594
G1 X152.89 Y33.895 E.03597
G3 X153.469 Y36.142 I-10.229 J3.834 E.07289
G1 X153.54 Y37.254 E.03494
G1 X153.467 Y38.398 E.03594
G1 X153.249 Y39.524 E.03596
G1 X152.89 Y40.613 E.03595
G1 X152.395 Y41.648 E.03597
G1 X151.773 Y42.611 E.03594
G1 X151.033 Y43.487 E.03595
G1 X150.189 Y44.263 E.03595
G1 X149.252 Y44.924 E.03595
G1 X148.239 Y45.462 E.03596
G1 X147.166 Y45.866 E.03595
G1 X146.05 Y46.13 E.03596
G1 X144.885 Y46.253 E.03673
G1 X34.631 Y50.839 E3.45992
G1 X30.5 Y49.998 E.13218
M73 P0 R98
M73 Q0 S98
G1 X144.826 Y45.243 E3.5877
G1 X146.064 Y45.1 E.03907
M73 P1 R98
M73 Q1 S98
G1 X147.186 Y44.795 E.03646
G1 X148.252 Y44.331 E.03645
G1 X149.24 Y43.716 E.03649
G1 X150.069 Y43.022 E.0339
G1 X150.282 Y42.792 E.00983
G1 X150.898 Y42.093 E.02921
G1 X151.492 Y41.19 E.03389
G1 X151.957 Y40.208 E.03407
G1 X152.019 Y40.062 E.00497
G1 X152.348 Y38.946 E.03648
G1 X152.51 Y37.795 E.03644
G1 X152.504 Y36.631 E.0365
G1 X152.348 Y35.562 E.03387
G1 X152.263 Y35.26 E.00984
G1 X151.99 Y34.369 E.02922
G1 X151.532 Y33.39 E.03389
G1 X150.94 Y32.479 E.03406
G1 X150.847 Y32.35 E.00499
G1 X150.069 Y31.486 E.03645
G1 X149.173 Y30.744 E.03648
G1 X148.179 Y30.14 E.03647
G1 X147.186 Y29.713 E.03389
G1 X146.885 Y29.627 E.00982
G2 X144.876 Y29.267 I-2.676 J9.159 E.06412
G1 X30.555 Y24.513 E3.58755
M204 P1000
G1 E-3.15 F2700
;WIPE_START
G1 F7200
G1 X30.495 Y24.51 E-.0214
G1 X34.148 Y23.762 E-1.3286
;WIPE_END
G1 Z.4 F720
G1 X26.634 Y24.747 F9000
G1 Z.2 F720
G1 E4.5 F1500
M204 P600
;TYPE:External perimeter
;WIDTH:0.422528
G1 F1200
G1 X26.891 Y24.666 E.00851
;WIDTH:0.423362
G1 X27.446 Y24.569 E.01782
;WIDTH:0.432252
G1 X28.393 Y24.493 E.03076
;WIDTH:0.479559
G1 X29.375 Y24.385 E.03587
G1 X29.65 Y24.314 E.01031
;WIDTH:0.449779
G1 X29.924 Y24.242 E.00958
;WIDTH:0.419999
G1 X34.455 Y23.314 E.14502
G1 X34.967 Y23.305 E.01606
G1 X144.912 Y27.879 E3.45022
G1 X146.114 Y28.006 E.0379
G1 X147.276 Y28.281 E.03744
G1 X148.394 Y28.702 E.03746
G1 X149.45 Y29.262 E.03748
G1 X150.426 Y29.951 E.03746
G1 X151.306 Y30.759 E.03746
G1 X152.077 Y31.672 E.03747
G1 X152.725 Y32.676 E.03747
G1 X153.24 Y33.754 E.03746
G3 X153.845 Y36.118 I-10.623 J3.977 E.07666
G1 X153.918 Y37.254 E.03569
G1 X153.842 Y38.446 E.03745
G1 X153.615 Y39.619 E.03746
G1 X153.24 Y40.754 E.03748
G1 X152.725 Y41.832 E.03746
G1 X152.077 Y42.836 E.03747
G1 X151.306 Y43.749 E.03747
G1 X150.426 Y44.557 E.03746
G1 X149.45 Y45.246 E.03746
G1 X148.394 Y45.806 E.03748
G1 X147.276 Y46.227 E.03746
G1 X146.114 Y46.503 E.03745
G1 X144.912 Y46.63 E.0379
G1 X34.6 Y51.218 E3.46174
G1 X29.924 Y50.265 E.14963
;WIDTH:0.448564
G1 X29.649 Y50.195 E.00957
;WIDTH:0.477128
G2 X28.924 Y50.077 I-.861 J3.021 E.02658
;WIDTH:0.449746
G1 X28.384 Y50.015 E.01839
;WIDTH:0.431867
G1 X27.412 Y49.935 E.03154
;WIDTH:0.422566
G1 X26.692 Y49.792 E.02317
G1 X26.592 Y49.629 E.00604
G1 X26.854 Y49.571 E.00847
;WIDTH:0.423375
G1 X27.477 Y49.56 E.01971
;WIDTH:0.432252
G1 X28.432 Y49.628 E.03099
;WIDTH:0.477128
G2 X29.701 Y49.661 I.855 J-8.604 E.04587
;WIDTH:0.448564
G1 X29.987 Y49.642 E.00967
;WIDTH:0.419999
G1 X144.811 Y44.866 E3.60333
G1 X145.967 Y44.735 E.03648
G1 X147.037 Y44.449 E.03473
G1 X148.055 Y44.009 E.03477
G1 X148.998 Y43.427 E.03474
G1 X149.827 Y42.733 E.0339
G1 X150.001 Y42.541 E.00812
G1 X150.583 Y41.885 E.0275
G1 X151.177 Y40.983 E.03386
G1 X151.616 Y40.049 E.03236
G1 X151.974 Y38.891 E.038
G1 X152.133 Y37.795 E.03472
G1 X152.131 Y36.686 E.03477
G1 X151.974 Y35.617 E.03388
G1 X151.902 Y35.368 E.00813
G1 X151.648 Y34.529 E.02749
G1 X151.191 Y33.549 E.0339
G1 X150.625 Y32.687 E.03233
G1 X149.827 Y31.775 E.038
G1 X148.976 Y31.065 E.03475
G1 X148.03 Y30.486 E.03478
G1 X147.037 Y30.06 E.03388
G1 X146.788 Y29.991 E.0081
G2 X144.86 Y29.644 I-2.551 J8.637 E.06154
G1 X29.982 Y24.866 E3.60503
;WIDTH:0.451579
G2 X28.414 Y24.881 I-.701 J8.692 E.05336
;WIDTH:0.431867
G1 X27.443 Y24.949 E.03148
;WIDTH:0.422528
G3 X26.602 Y24.892 I-.174 J-3.673 E.02667
G1 X26.617 Y24.799 E.00297
M204 P1000
G1 E-3.15 F2700
;WIPE_START
G1 F7200
G1 X26.634 Y24.747 E-.01949
G1 X26.891 Y24.666 E-.096
G1 X27.446 Y24.569 E-.20072
G1 X28.393 Y24.493 E-.33845
G1 X29.375 Y24.385 E-.35195
G1 X29.65 Y24.314 E-.10118
G1 X29.924 Y24.242 E-.10093
G1 X30.313 Y24.162 E-.14128
;WIPE_END
G1 Z.4 F720
G1 X151.83 Y32.298 F9000
G1 Z.2 F720
G1 E4.5 F1500
M204 P600
;TYPE:Solid infill
;WIDTH:0.420662
G1 F1200
G2 X149.975 Y30.51 I-26.556 J25.694 E.08094
G1 X149.074 Y29.873 E.03466
G1 X148.642 Y29.645 E.01534
G1 X152.527 Y33.529 E.17255
M204 P1000
G1 E-3.15 F2700
;WIPE_START
G1 F7200
G1 X149.847 Y30.85 E-1.35
;WIPE_END
G1 Z.4 F720
G1 X151.524 Y33.061 F9000
G1 Z.2 F720
G1 E4.5 F1500
M204 P600
G1 F1200
G1 X152.618 Y34.155 E.0486
G1 X152.881 Y34.952 E.02636
G1 X152.362 Y34.433 E.02305
G1 X152.595 Y35.2 E.02518
G1 X153.029 Y35.634 E.01928
G3 X153.137 Y36.277 I-4.535 J1.095 E.0205
G1 X152.733 Y35.872 E.01797
G1 X152.82 Y36.494 E.01973
G1 X153.174 Y36.847 E.0157
G3 X153.188 Y37.396 I-3.024 J.356 E.01727
G1 X152.847 Y37.055 E.01515
G1 X152.844 Y37.586 E.01668
G1 X153.157 Y37.899 E.0139
G1 X153.129 Y38.355 E.01435
G1 X153.121 Y38.397 E.00134
G1 X152.816 Y38.092 E.01355
G1 X152.747 Y38.557 E.01477
G1 X153.035 Y38.845 E.01279
G1 X152.948 Y39.293 E.01433
G1 X152.678 Y39.023 E.01199
G1 X152.558 Y39.437 E.01354
G1 X152.831 Y39.709 E.0121
G1 X152.698 Y40.111 E.0133
G1 X152.436 Y39.849 E.01164
G1 X152.304 Y40.251 E.01329
G1 X152.563 Y40.51 E.0115
G1 X152.39 Y40.871 E.01257
G1 X152.135 Y40.616 E.01133
G1 X151.967 Y40.982 E.01265
G1 X152.217 Y41.233 E.01113
G1 X152.098 Y41.482 E.00867
G1 X152.033 Y41.583 E.00377
G1 X151.795 Y41.344 E.01059
G1 X151.582 Y41.666 E.01213
G1 X151.823 Y41.907 E.01071
G1 X151.614 Y42.232 E.01214
G1 X151.369 Y41.987 E.01088
G1 X151.156 Y42.308 E.0121
G1 X151.388 Y42.541 E.01033
G1 X151.144 Y42.83 E.01188
G1 X150.909 Y42.596 E.01042
G1 X150.656 Y42.876 E.01185
G1 X150.899 Y43.12 E.01082
G1 X150.788 Y43.252 E.00542
G1 X150.636 Y43.391 E.00647
G1 X150.402 Y43.157 E.01039
G3 X150.127 Y43.416 I-1.261 J-1.066 E.01189
G1 X150.358 Y43.647 E.01026
G1 X150.079 Y43.902 E.01187
G1 X149.835 Y43.659 E.01082
G1 X149.544 Y43.902 E.01191
G1 X149.779 Y44.137 E.01044
G1 X149.466 Y44.358 E.01203
G1 X149.233 Y44.125 E.01035
G1 X148.902 Y44.328 E.0122
G1 X149.153 Y44.579 E.01115
G1 X148.813 Y44.773 E.0123
G1 X148.572 Y44.532 E.01071
G3 X148.219 Y44.713 I-.959 J-1.433 E.01249
G1 X148.464 Y44.958 E.01088
G1 X148.115 Y45.143 E.01241
G1 X147.847 Y44.876 E.01188
G1 X147.475 Y45.038 E.01274
G1 X147.728 Y45.291 E.01124
G1 X147.34 Y45.437 E.01302
G1 X147.079 Y45.176 E.01159
G1 X146.656 Y45.287 E.01374
G1 X146.939 Y45.571 E.01259
G1 X146.507 Y45.673 E.01394
G1 X146.233 Y45.398 E.01219
G3 X145.78 Y45.48 I-.569 J-1.871 E.01449
G1 X146.076 Y45.775 E.01313
G1 X145.602 Y45.836 E.01501
G1 X145.3 Y45.534 E.01341
G1 X144.815 Y45.583 E.01531
G1 X145.119 Y45.887 E.0135
G1 X144.622 Y45.925 E.01566
G1 X144.302 Y45.604 E.01424
G1 X143.789 Y45.626 E.01613
G1 X144.109 Y45.946 E.01421
G1 X143.596 Y45.967 E.01613
G1 X143.276 Y45.647 E.01421
G1 X142.763 Y45.668 E.01613
G1 X143.084 Y45.989 E.01426
G1 X142.571 Y46.01 E.01613
G1 X142.251 Y45.69 E.01421
G1 X141.738 Y45.711 E.01613
G1 X142.058 Y46.031 E.01421
G1 X141.545 Y46.053 E.01613
G1 X141.225 Y45.732 E.01424
G1 X140.712 Y45.754 E.01613
G1 X141.032 Y46.074 E.01421
G1 X140.519 Y46.095 E.01613
G1 X140.199 Y45.775 E.01421
G1 X139.686 Y45.796 E.01613
G1 X140.006 Y46.117 E.01424
G1 X139.493 Y46.138 E.01613
G1 X139.173 Y45.818 E.01421
G1 X138.66 Y45.839 E.01613
G1 X138.981 Y46.159 E.01424
G1 X138.468 Y46.181 E.01613
G1 X138.148 Y45.86 E.01424
G1 X137.635 Y45.882 E.01613
G1 X137.955 Y46.202 E.01421
G1 X137.442 Y46.223 E.01613
G1 X137.122 Y45.903 E.01421
G1 X136.609 Y45.924 E.01613
G1 X136.929 Y46.245 E.01424
G1 X136.416 Y46.266 E.01613
G1 X136.096 Y45.946 E.01421
G1 X135.583 Y45.967 E.01613
G1 X135.903 Y46.287 E.01421
G1 X135.39 Y46.308 E.01613
G1 X135.07 Y45.988 E.01421
G1 X134.557 Y46.01 E.01613
G1 X134.878 Y46.33 E.01424
G1 X134.365 Y46.351 E.01613
G1 X134.045 Y46.031 E.01421
G1 X133.532 Y46.052 E.01613
G1 X133.852 Y46.372 E.01421
G1 X133.339 Y46.394 E.01613
G1 X133.019 Y46.074 E.01421
G1 X132.506 Y46.095 E.01613
G1 X132.826 Y46.415 E.01421
G1 X132.313 Y46.436 E.01613
G1 X131.993 Y46.116 E.01421
G1 X131.48 Y46.138 E.01613
G1 X131.8 Y46.458 E.01421
G1 X131.287 Y46.479 E.01613
G1 X130.967 Y46.159 E.01421
G1 X130.454 Y46.18 E.01613
G1 X130.775 Y46.5 E.01424
G1 X130.262 Y46.522 E.01613
G1 X129.942 Y46.202 E.01421
G1 X129.429 Y46.223 E.01613
G1 X129.749 Y46.543 E.01421
G1 X129.236 Y46.564 E.01613
G1 X128.916 Y46.244 E.01421
G1 X128.403 Y46.266 E.01613
G1 X128.723 Y46.586 E.01421
G1 X128.21 Y46.607 E.01613
G1 X127.89 Y46.287 E.01421
G1 X127.377 Y46.308 E.01613
G1 X127.697 Y46.628 E.01421
G1 X127.184 Y46.65 E.01613
G1 X126.864 Y46.33 E.01421
G1 X126.351 Y46.351 E.01613
G1 X126.672 Y46.671 E.01424
G1 X126.159 Y46.692 E.01613
G1 X125.839 Y46.372 E.01421
G1 X125.326 Y46.394 E.01613
G1 X125.646 Y46.714 E.01421
G1 X125.133 Y46.735 E.01613
G1 X124.813 Y46.415 E.01421
G1 X124.3 Y46.436 E.01613
G1 X124.62 Y46.756 E.01421
G1 X124.107 Y46.778 E.01613
G1 X123.787 Y46.458 E.01421
G1 X123.274 Y46.479 E.01613
G1 X123.594 Y46.799 E.01421
G1 X123.081 Y46.82 E.01613
G1 X122.761 Y46.5 E.01421
G1 X122.248 Y46.522 E.01613
G1 X122.569 Y46.842 E.01424
G1 X122.056 Y46.863 E.01613
G1 X121.735 Y46.543 E.01424
G1 X121.223 Y46.564 E.0161
G1 X121.543 Y46.884 E.01421
G1 X121.03 Y46.906 E.01613
G1 X120.71 Y46.586 E.01421
G1 X120.197 Y46.607 E.01613
G1 X120.517 Y46.927 E.01421
G1 X120.004 Y46.948 E.01613
G1 X119.684 Y46.628 E.01421
G1 X119.171 Y46.65 E.01613
G1 X119.491 Y46.97 E.01421
G1 X118.978 Y46.991 E.01613
G1 X118.658 Y46.671 E.01421
G1 X118.145 Y46.692 E.01613
G1 X118.466 Y47.012 E.01424
G1 X117.953 Y47.034 E.01613
G1 X117.632 Y46.714 E.01424
G1 X117.12 Y46.735 E.0161
G1 X117.44 Y47.055 E.01421
G1 X116.927 Y47.076 E.01613
G1 X116.607 Y46.756 E.01421
G1 X116.094 Y46.778 E.01613
G1 X116.414 Y47.098 E.01421
G1 X115.901 Y47.119 E.01613
G1 X115.581 Y46.799 E.01421
G1 X115.068 Y46.82 E.01613
G1 X115.388 Y47.14 E.01421
G1 X114.875 Y47.162 E.01613
G1 X114.555 Y46.842 E.01421
G1 X114.042 Y46.863 E.01613
G1 X114.363 Y47.183 E.01424
G1 X113.85 Y47.204 E.01613
G1 X113.529 Y46.884 E.01424
G1 X113.017 Y46.906 E.0161
G1 X113.337 Y47.226 E.01421
G1 X112.824 Y47.247 E.01613
G1 X112.504 Y46.927 E.01421
G1 X111.991 Y46.948 E.01613
G1 X112.311 Y47.268 E.01421
G1 X111.798 Y47.29 E.01613
G1 X111.478 Y46.97 E.01421
G1 X110.965 Y46.991 E.01613
G1 X111.285 Y47.311 E.01421
G1 X110.772 Y47.332 E.01613
G1 X110.452 Y47.012 E.01421
G1 X109.939 Y47.034 E.01613
G1 X110.26 Y47.354 E.01424
G1 X109.747 Y47.375 E.01613
G1 X109.426 Y47.055 E.01424
G1 X108.914 Y47.076 E.0161
G1 X109.234 Y47.396 E.01421
G1 X108.721 Y47.418 E.01613
G1 X108.401 Y47.098 E.01421
G1 X107.888 Y47.119 E.01613
G1 X108.208 Y47.439 E.01421
G1 X107.695 Y47.46 E.01613
G1 X107.375 Y47.14 E.01421
G1 X106.862 Y47.162 E.01613
G1 X107.182 Y47.482 E.01421
G1 X106.669 Y47.503 E.01613
G1 X106.349 Y47.183 E.01421
G1 X105.836 Y47.204 E.01613
G1 X106.157 Y47.524 E.01424
G1 X105.644 Y47.546 E.01613
G1 X105.323 Y47.225 E.01426
G1 X104.811 Y47.247 E.0161
G1 X105.131 Y47.567 E.01421
G1 X104.618 Y47.588 E.01613
G1 X104.298 Y47.268 E.01421
G1 X103.785 Y47.289 E.01613
G1 X104.105 Y47.61 E.01424
G1 X103.592 Y47.631 E.01613
G1 X103.272 Y47.311 E.01421
G1 X102.759 Y47.332 E.01613
G1 X103.079 Y47.652 E.01421
G1 X102.566 Y47.674 E.01613
G1 X102.246 Y47.353 E.01424
G1 X101.733 Y47.375 E.01613
G1 X102.054 Y47.695 E.01424
G1 X101.541 Y47.716 E.01613
G1 X101.22 Y47.396 E.01424
G1 X100.708 Y47.417 E.0161
G1 X101.028 Y47.738 E.01424
G1 X100.515 Y47.759 E.01613
G1 X100.195 Y47.439 E.01421
G1 X99.682 Y47.46 E.01613
G1 X100.002 Y47.78 E.01421
G1 X99.489 Y47.802 E.01613
G1 X99.169 Y47.481 E.01424
G1 X98.656 Y47.503 E.01613
G1 X98.976 Y47.823 E.01421
G1 X98.463 Y47.844 E.01613
G1 X98.143 Y47.524 E.01421
G1 X97.63 Y47.545 E.01613
G1 X97.951 Y47.866 E.01426
G1 X97.438 Y47.887 E.01613
G1 X97.117 Y47.567 E.01424
G1 X96.604 Y47.588 E.01613
G1 X96.925 Y47.908 E.01424
G1 X96.412 Y47.93 E.01613
G1 X96.092 Y47.609 E.01424
G1 X95.579 Y47.631 E.01613
G1 X95.899 Y47.951 E.01421
G1 X95.386 Y47.972 E.01613
G1 X95.066 Y47.652 E.01421
G1 X94.553 Y47.673 E.01613
G1 X94.873 Y47.994 E.01424
G1 X94.36 Y48.015 E.01613
G1 X94.04 Y47.695 E.01421
G1 X93.527 Y47.716 E.01613
G1 X93.848 Y48.036 E.01424
G1 X93.335 Y48.058 E.01613
G1 X93.014 Y47.737 E.01426
G1 X92.501 Y47.759 E.01613
