; generated by PrusaSlicer 2.3.0+win64 on 2022-08-24 at 07:04:06 UTC


;
;

;
;
; 

; external perimeters extrusion width = 0.45mm
; perimeters extrusion width = 0.45mm
; infill extrusion width = 0.45mm
; solid infill extrusion width = 0.45mm
; top infill extrusion width = 0.40mm
; first layer extrusion width = 0.42mm

M73 P0 R66
M201 X1250 Y1250 Z400 E5000 ; sets maximum accelerations, mm/sec^2
M203 X180 Y180 Z12 E80 ; sets maximum feedrates, mm/sec
M204 P1250 R1250 T1250 ; sets acceleration (P, T) and retract acceleration (R), mm/sec^2
M205 X8.00 Y8.00 Z2.00 E10.00 ; sets the jerk limits, mm/sec
M205 S0 T0 ; sets the minimum extruding and travel feed rate, mm/sec
M107
;TYPE:Custom
G90 ; use absolute coordinates
M83 ; extruder relative mode
M104 S170 ; set extruder temp for bed leveling
M140 S85 ; set bed temp
M109 R170 ; wait for bed leveling temp
M190 S85 ; wait for bed temp
G28 ; home all without mesh bed level
G29 ; mesh bed leveling 
M104 S230 ; set extruder temp
G92 E0.0
G1 Y-2.0 X179 F2400
M73 P0 R65
G1 Z3 F720
M109 S230 ; wait for extruder temp

; intro line
G1 X170 F1000
G1 Z0.2 F720
G1 X110.0 E8.0 F900
G1 X40.0 E10.0 F700
G92 E0.0

M221 S95 ; set flow
G21 ; set units to millimeters
G90 ; use absolute coordinates
M83 ; use relative distances for extrusion
M900 K0.2 ; Filament gcode
;LAYER_CHANGE
;Z:0.2
;HEIGHT:0.2
;BEFORE_LAYER_CHANGE
G92 E0.0
;0.2


G1 Z0.200 F9000.000
;AFTER_LAYER_CHANGE
;0.2
G1 E-3.20000 F2400.000
G1 Z0.400 F9000.000
G1 X51.015 Y67.573
G1 Z0.200
G1 E3.20000 F1500.000
M204 S800
;TYPE:Skirt
;WIDTH:0.42
G1 F1200.000
G1 X51.743 Y66.581 E0.03859
G1 X52.672 Y65.811 E0.03786
G1 X87.665 Y45.606 E1.26692
G1 X88.818 Y45.166 E0.03871
G1 X90.006 Y45.023 E0.03750
G1 X91.238 Y45.180 E0.03894
G1 X91.907 Y45.403 E0.02212
G1 X92.547 Y45.725 E0.02245
G1 X127.275 Y65.779 E1.25740
G1 X128.226 Y66.548 E0.03835
G1 X128.921 Y67.461 E0.03596
G1 X129.415 Y68.592 E0.03871
G1 X129.614 Y69.825 E0.03916
G1 X129.617 Y109.932 E1.25752
G1 X129.488 Y111.125 E0.03764
G1 X128.985 Y112.427 E0.04374
G1 X128.257 Y113.419 E0.03859
G1 X127.328 Y114.189 E0.03786
G1 X92.335 Y134.394 E1.26692
G1 X91.182 Y134.834 E0.03871
G1 X89.998 Y134.977 E0.03738
G1 X88.762 Y134.820 E0.03906
G1 X88.093 Y134.597 E0.02212
G1 X87.453 Y134.275 E0.02245
G1 X52.725 Y114.221 E1.25740
G1 X51.774 Y113.452 E0.03835
G1 X51.079 Y112.539 E0.03596
G1 X50.585 Y111.408 E0.03871
G1 X50.386 Y110.175 E0.03916
G1 X50.383 Y70.068 E1.25752
G1 X50.512 Y68.875 E0.03764
G1 X50.993 Y67.629 E0.04186
M204 S1250
; printing object SodaStream-Crystal-Bottle-Stand.stl id:0 copy 0
G1 E-2.24000 F2400.000
;WIPE_START
G1 F7200.000
G1 X51.743 Y66.581 E-0.40809
G1 X52.672 Y65.811 E-0.38234
G1 X53.005 Y65.619 E-0.12157
;WIPE_END
G1 E-0.04800 F2400.000
G1 Z0.400 F9000.000
G1 X91.036 Y83.945
G1 Z0.200
G1 E3.20000 F1500.000
M204 S800
;TYPE:Perimeter
G1 F1200.000
G1 X91.338 Y83.945 E0.00948
G1 X91.467 Y84.222 E0.00955
G1 X91.720 Y84.622 E0.01485
G1 X92.047 Y84.991 E0.01546
G1 X92.414 Y85.290 E0.01485
G1 X92.639 Y85.432 E0.00834
G1 X92.874 Y85.556 E0.00834
G1 X93.317 Y85.724 E0.01485
G1 X93.781 Y85.819 E0.01485
G1 X94.065 Y85.842 E0.00895
G1 X94.576 Y85.815 E0.01605
G1 X94.727 Y86.075 E0.00941
G1 X124.181 Y69.077 E1.06628
G1 X124.432 Y68.991 E0.00832
G1 X124.590 Y68.969 E0.00500
G1 X124.731 Y68.973 E0.00443
G1 X124.990 Y69.031 E0.00830
G1 X125.255 Y69.172 E0.00941
G1 X125.445 Y69.356 E0.00831
G1 X125.534 Y69.484 E0.00490
G1 X125.601 Y69.626 E0.00490
G1 X125.665 Y69.883 E0.00831
G1 X125.673 Y70.024 E0.00442
G1 X125.655 Y70.183 E0.00502
G1 X125.576 Y70.435 E0.00830
G1 X125.410 Y70.685 E0.00940
G1 X125.210 Y70.859 E0.00832
G1 X95.761 Y87.870 E1.06632
G1 X95.913 Y88.132 E0.00948
G1 X95.634 Y88.561 E0.01605
G1 X95.511 Y88.819 E0.00895
G1 X95.362 Y89.268 E0.01485
G1 X95.286 Y89.735 E0.01485
G1 X95.275 Y90.001 E0.00834
G1 X95.286 Y90.267 E0.00834
G1 X95.362 Y90.734 E0.01485
G1 X95.511 Y91.184 E0.01485
G1 X95.634 Y91.442 E0.00895
G1 X95.913 Y91.871 E0.01605
G1 X95.762 Y92.131 E0.00942
G1 X125.139 Y109.092 E1.06358
G1 X125.337 Y109.239 E0.00774
G1 X125.503 Y109.440 E0.00817
G1 X125.619 Y109.674 E0.00819
G1 X125.673 Y109.973 E0.00953
G1 X125.663 Y110.150 E0.00555
G1 X125.605 Y110.369 E0.00711
G1 X125.543 Y110.499 E0.00452
G1 X125.387 Y110.708 E0.00818
G1 X125.201 Y110.862 E0.00757
G1 X124.984 Y110.969 E0.00759
G1 X124.730 Y111.027 E0.00817
G1 X124.587 Y111.031 E0.00448
G1 X124.445 Y111.012 E0.00447
G1 X124.180 Y110.922 E0.00879
G1 X94.725 Y93.924 E1.06627
G1 X94.574 Y94.186 E0.00948
G1 X94.271 Y94.160 E0.00955
G1 X93.798 Y94.179 E0.01485
G1 X93.316 Y94.277 E0.01542
G1 X92.893 Y94.436 E0.01417
G1 X92.622 Y94.576 E0.00955
G1 X92.245 Y94.836 E0.01435
G1 X92.032 Y95.025 E0.00895
G1 X91.718 Y95.380 E0.01485
G1 X91.465 Y95.780 E0.01485
G1 X91.336 Y96.056 E0.00955
G1 X91.036 Y96.056 E0.00941
G1 X91.029 Y130.063 E1.06628
M73 P1 R65
G1 X90.978 Y130.324 E0.00832
G1 X90.918 Y130.471 E0.00500
G1 X90.844 Y130.592 E0.00443
G1 X90.665 Y130.787 E0.00830
G1 X90.411 Y130.946 E0.00941
G1 X90.156 Y131.018 E0.00831
G1 X90.000 Y131.032 E0.00490
G1 X89.844 Y131.018 E0.00490
G1 X89.589 Y130.946 E0.00831
G1 X89.335 Y130.787 E0.00941
G1 X89.156 Y130.592 E0.00830
G1 X89.082 Y130.471 E0.00443
G1 X89.022 Y130.324 E0.00500
G1 X88.971 Y130.063 E0.00832
G1 X88.964 Y96.055 E1.06632
G1 X88.662 Y96.055 E0.00948
G1 X88.533 Y95.778 E0.00955
G1 X88.280 Y95.378 E0.01485
G1 X87.953 Y95.009 E0.01546
G1 X87.586 Y94.710 E0.01485
G1 X87.361 Y94.568 E0.00834
G1 X87.126 Y94.444 E0.00834
G1 X86.683 Y94.276 E0.01485
G1 X86.219 Y94.181 E0.01485
G1 X85.935 Y94.158 E0.00895
G1 X85.424 Y94.185 E0.01605
G1 X85.273 Y93.925 E0.00941
G1 X55.819 Y110.923 E1.06628
G1 X55.568 Y111.009 E0.00832
G1 X55.410 Y111.031 E0.00500
G1 X55.269 Y111.027 E0.00443
G1 X55.010 Y110.969 E0.00830
G1 X54.745 Y110.828 E0.00941
G1 X54.555 Y110.644 E0.00831
G1 X54.466 Y110.516 E0.00490
G1 X54.399 Y110.374 E0.00490
G1 X54.335 Y110.117 E0.00831
G1 X54.345 Y109.817 E0.00941
G1 X54.424 Y109.565 E0.00830
G1 X54.492 Y109.441 E0.00443
G1 X54.590 Y109.315 E0.00500
G1 X54.790 Y109.141 E0.00832
G1 X84.239 Y92.130 E1.06632
G1 X84.087 Y91.868 E0.00948
G1 X84.366 Y91.439 E0.01605
G1 X84.489 Y91.181 E0.00895
G1 X84.638 Y90.732 E0.01485
G1 X84.714 Y90.265 E0.01485
G1 X84.725 Y89.999 E0.00834
G1 X84.714 Y89.733 E0.00834
G1 X84.638 Y89.266 E0.01485
G1 X84.489 Y88.816 E0.01485
G1 X84.366 Y88.558 E0.00895
G1 X84.087 Y88.129 E0.01605
G1 X84.238 Y87.869 E0.00942
G1 X54.861 Y70.908 E1.06358
G1 X54.663 Y70.761 E0.00774
G1 X54.497 Y70.560 E0.00817
G1 X54.381 Y70.326 E0.00819
G1 X54.327 Y70.027 E0.00953
G1 X54.337 Y69.850 E0.00555
G1 X54.395 Y69.631 E0.00711
G1 X54.457 Y69.501 E0.00452
G1 X54.613 Y69.292 E0.00818
G1 X54.799 Y69.138 E0.00757
G1 X55.016 Y69.031 E0.00759
G1 X55.270 Y68.973 E0.00817
G1 X55.413 Y68.969 E0.00448
G1 X55.555 Y68.988 E0.00447
G1 X55.820 Y69.078 E0.00879
G1 X85.275 Y86.076 E1.06627
G1 X85.426 Y85.814 E0.00948
G1 X85.729 Y85.840 E0.00955
G1 X86.202 Y85.821 E0.01485
G1 X86.684 Y85.723 E0.01542
G1 X87.107 Y85.564 E0.01417
G1 X87.378 Y85.424 E0.00955
G1 X87.755 Y85.164 E0.01435
G1 X87.968 Y84.975 E0.00895
G1 X88.282 Y84.620 E0.01485
G1 X88.535 Y84.220 E0.01485
G1 X88.664 Y83.944 E0.00955
G1 X88.964 Y83.944 E0.00941
G1 X88.971 Y49.937 E1.06628
G1 X89.022 Y49.676 E0.00832
G1 X89.082 Y49.529 E0.00500
G1 X89.155 Y49.410 E0.00438
G1 X89.345 Y49.204 E0.00877
G1 X89.445 Y49.131 E0.00390
G1 X89.700 Y49.014 E0.00877
G1 X89.835 Y48.981 E0.00438
G1 X89.995 Y48.970 E0.00500
G1 X90.258 Y49.002 E0.00831
G1 X90.377 Y49.041 E0.00393
G1 X90.621 Y49.177 E0.00877
G1 X90.835 Y49.393 E0.00954
G1 X90.918 Y49.529 E0.00498
G1 X90.978 Y49.676 E0.00500
G1 X91.029 Y49.937 E0.00832
G1 X91.036 Y83.885 E1.06444
M204 S1250
G1 X91.413 Y83.568 F9000.000
M204 S800
G1 F1200.000
G1 X91.610 Y83.568 E0.00618
G1 X91.695 Y83.823 E0.00840
G1 X91.798 Y84.039 E0.00752
G1 X92.022 Y84.395 E0.01318
G1 X92.309 Y84.718 E0.01355
G1 X92.635 Y84.984 E0.01318
G1 X92.827 Y85.106 E0.00715
G1 X93.029 Y85.212 E0.00715
G1 X93.422 Y85.361 E0.01318
G1 X93.834 Y85.445 E0.01318
G1 X94.073 Y85.464 E0.00752
G1 X94.493 Y85.447 E0.01318
G1 X94.767 Y85.391 E0.00878
G1 X94.865 Y85.560 E0.00611
G1 X124.024 Y68.732 E1.05560
G1 X124.344 Y68.623 E0.01061
G1 X124.569 Y68.592 E0.00711
G1 X124.778 Y68.597 E0.00655
G1 X125.107 Y68.671 E0.01059
G1 X125.316 Y68.762 E0.00713
G1 X125.491 Y68.875 E0.00654
G1 X125.733 Y69.110 E0.01060
G1 X125.862 Y69.295 E0.00706
G1 X125.958 Y69.499 E0.00706
G1 X126.040 Y69.827 E0.01060
G1 X126.051 Y70.035 E0.00654
G1 X126.026 Y70.261 E0.00713
G1 X125.924 Y70.583 E0.01059
G1 X125.825 Y70.767 E0.00655
G1 X125.685 Y70.946 E0.00711
G1 X125.430 Y71.168 E0.01061
G1 X96.276 Y88.008 E1.05564
G1 X96.375 Y88.179 E0.00618
G1 X96.189 Y88.388 E0.00878
G1 X95.965 Y88.743 E0.01318
G1 X95.862 Y88.960 E0.00752
G1 X95.729 Y89.359 E0.01318
G1 X95.661 Y89.773 E0.01318
G1 X95.652 Y90.001 E0.00715
G1 X95.661 Y90.229 E0.00715
G1 X95.729 Y90.644 E0.01318
G1 X95.862 Y91.043 E0.01318
G1 X95.965 Y91.259 E0.00752
G1 X96.189 Y91.615 E0.01318
G1 X96.375 Y91.824 E0.00878
G1 X96.277 Y91.993 E0.00611
G1 X125.431 Y108.830 E1.05558
G1 X125.603 Y108.970 E0.00695
G1 X125.822 Y109.233 E0.01074
G1 X125.974 Y109.541 E0.01076
G1 X126.028 Y109.743 E0.00656
G1 X126.051 Y109.963 E0.00695
G1 X126.039 Y110.193 E0.00722
G1 X125.958 Y110.505 E0.01009
G1 X125.867 Y110.695 E0.00660
G1 X125.662 Y110.969 E0.01075
G1 X125.408 Y111.181 E0.01037
G1 X125.111 Y111.327 E0.01039
G1 X124.777 Y111.403 E0.01074
G1 X124.567 Y111.408 E0.00658
G1 X124.359 Y111.381 E0.00657
G1 X124.024 Y111.267 E0.01112
G1 X94.863 Y94.439 E1.05561
G1 X94.765 Y94.610 E0.00618
G1 X94.502 Y94.557 E0.00840
G1 X94.263 Y94.537 E0.00752
G1 X93.843 Y94.554 E0.01318
G1 X93.421 Y94.640 E0.01353
G1 X93.046 Y94.782 E0.01254
G1 X92.816 Y94.900 E0.00810
G1 X92.478 Y95.133 E0.01288
G1 X92.299 Y95.292 E0.00752
G1 X92.020 Y95.607 E0.01318
G1 X91.796 Y95.962 E0.01318
G1 X91.693 Y96.179 E0.00752
G1 X91.608 Y96.433 E0.00840
G1 X91.413 Y96.433 E0.00611
G1 X91.406 Y130.100 E1.05560
M73 P1 R64
G1 X91.341 Y130.432 E0.01061
G1 X91.256 Y130.642 E0.00711
G1 X91.147 Y130.820 E0.00655
G1 X90.918 Y131.069 E0.01059
G1 X90.735 Y131.203 E0.00713
G1 X90.549 Y131.298 E0.00654
G1 X90.224 Y131.391 E0.01060
G1 X90.000 Y131.410 E0.00706
G1 X89.776 Y131.391 E0.00706
G1 X89.451 Y131.298 E0.01060
G1 X89.265 Y131.203 E0.00654
G1 X89.082 Y131.069 E0.00713
G1 X88.853 Y130.820 E0.01059
G1 X88.744 Y130.642 E0.00655
G1 X88.659 Y130.432 E0.00711
G1 X88.594 Y130.100 E0.01061
G1 X88.587 Y96.432 E1.05564
G1 X88.390 Y96.432 E0.00618
G1 X88.305 Y96.177 E0.00840
G1 X88.202 Y95.961 E0.00752
G1 X87.978 Y95.605 E0.01318
G1 X87.691 Y95.282 E0.01355
G1 X87.365 Y95.016 E0.01318
G1 X87.173 Y94.894 E0.00715
G1 X86.971 Y94.788 E0.00715
G1 X86.578 Y94.639 E0.01318
G1 X86.166 Y94.555 E0.01318
G1 X85.927 Y94.536 E0.00752
G1 X85.507 Y94.553 E0.01318
G1 X85.233 Y94.609 E0.00878
G1 X85.135 Y94.440 E0.00611
G1 X55.976 Y111.268 E1.05560
G1 X55.656 Y111.377 E0.01061
G1 X55.431 Y111.408 E0.00711
G1 X55.222 Y111.403 E0.00655
G1 X54.893 Y111.329 E0.01059
G1 X54.684 Y111.238 E0.00713
G1 X54.509 Y111.125 E0.00654
G1 X54.267 Y110.890 E0.01060
G1 X54.138 Y110.705 E0.00706
G1 X54.042 Y110.501 E0.00706
G1 X53.960 Y110.173 E0.01060
G1 X53.949 Y109.965 E0.00654
G1 X53.974 Y109.739 E0.00713
G1 X54.076 Y109.417 E0.01059
G1 X54.175 Y109.233 E0.00655
G1 X54.315 Y109.054 E0.00711
G1 X54.570 Y108.832 E0.01061
G1 X83.724 Y91.992 E1.05564
G1 X83.625 Y91.821 E0.00618
G1 X83.811 Y91.612 E0.00878
G1 X84.035 Y91.257 E0.01318
G1 X84.138 Y91.040 E0.00752
G1 X84.271 Y90.641 E0.01318
G1 X84.339 Y90.227 E0.01318
G1 X84.348 Y89.999 E0.00715
G1 X84.339 Y89.771 E0.00715
G1 X84.271 Y89.356 E0.01318
G1 X84.138 Y88.957 E0.01318
G1 X84.035 Y88.741 E0.00752
G1 X83.811 Y88.385 E0.01318
G1 X83.625 Y88.176 E0.00878
G1 X83.723 Y88.007 E0.00611
G1 X54.666 Y71.231 E1.05199
G1 X54.397 Y71.030 E0.01052
G1 X54.178 Y70.767 E0.01074
G1 X54.026 Y70.459 E0.01076
G1 X53.972 Y70.257 E0.00656
G1 X53.949 Y70.037 E0.00695
G1 X53.961 Y69.807 E0.00722
G1 X54.042 Y69.495 E0.01009
G1 X54.133 Y69.305 E0.00660
G1 X54.338 Y69.031 E0.01075
G1 X54.592 Y68.819 E0.01037
G1 X54.889 Y68.673 E0.01039
G1 X55.223 Y68.597 E0.01074
G1 X55.433 Y68.592 E0.00658
G1 X55.641 Y68.619 E0.00657
G1 X55.976 Y68.733 E0.01112
G1 X85.137 Y85.561 E1.05561
G1 X85.235 Y85.390 E0.00618
G1 X85.498 Y85.443 E0.00840
G1 X85.737 Y85.463 E0.00752
G1 X86.157 Y85.446 E0.01318
G1 X86.579 Y85.360 E0.01353
G1 X86.954 Y85.218 E0.01254
G1 X87.184 Y85.100 E0.00810
G1 X87.522 Y84.867 E0.01288
G1 X87.701 Y84.708 E0.00752
G1 X87.980 Y84.393 E0.01318
G1 X88.204 Y84.038 E0.01318
G1 X88.307 Y83.821 E0.00752
G1 X88.392 Y83.567 E0.00840
G1 X88.587 Y83.567 E0.00611
G1 X88.594 Y49.900 E1.05560
G1 X88.659 Y49.568 E0.01061
G1 X88.744 Y49.358 E0.00711
G1 X88.853 Y49.181 E0.00652
G1 X89.093 Y48.921 E0.01110
G1 X89.254 Y48.804 E0.00623
G1 X89.575 Y48.656 E0.01110
G1 X89.777 Y48.607 E0.00651
G1 X90.004 Y48.591 E0.00712
G1 X90.339 Y48.632 E0.01060
G1 X90.529 Y48.693 E0.00624
G1 X90.838 Y48.867 E0.01110
G1 X90.997 Y49.003 E0.00658
G1 X91.141 Y49.171 E0.00694
G1 X91.256 Y49.358 E0.00688
G1 X91.341 Y49.568 E0.00711
G1 X91.406 Y49.900 E0.01061
G1 X91.413 Y83.508 E1.05376
M204 S1250
G1 X91.790 Y83.191 F9000.000
M204 S800
;TYPE:External perimeter
G1 F1200.000
G1 X91.906 Y83.191 E0.00362
G1 X91.929 Y83.334 E0.00453
G1 X92.045 Y83.682 E0.01149
G1 X92.129 Y83.857 E0.00609
G1 X92.325 Y84.167 E0.01151
G1 X92.571 Y84.445 E0.01164
G1 X92.855 Y84.677 E0.01151
G1 X93.016 Y84.779 E0.00596
G1 X93.184 Y84.867 E0.00596
G1 X93.527 Y84.997 E0.01151
G1 X93.887 Y85.071 E0.01151
G1 X94.081 Y85.086 E0.00609
G1 X94.447 Y85.072 E0.01151
G1 X94.811 Y84.997 E0.01163
G1 X94.946 Y84.947 E0.00453
G1 X95.003 Y85.045 E0.00355
G1 X123.868 Y68.388 E1.04492
G1 X124.257 Y68.254 E0.01290
G1 X124.548 Y68.214 E0.00922
G1 X124.824 Y68.221 E0.00866
G1 X125.225 Y68.310 E0.01288
G1 X125.495 Y68.429 E0.00924
G1 X125.727 Y68.579 E0.00865
G1 X126.022 Y68.865 E0.01289
G1 X126.190 Y69.106 E0.00921
M73 P2 R64
G1 X126.315 Y69.372 E0.00921
G1 X126.414 Y69.770 E0.01289
G1 X126.429 Y70.046 E0.00865
G1 X126.396 Y70.339 E0.00925
G1 X126.273 Y70.731 E0.01288
G1 X126.141 Y70.974 E0.00866
G1 X125.961 Y71.206 E0.00922
G1 X125.651 Y71.476 E0.01290
G1 X96.792 Y88.146 E1.04496
G1 X96.849 Y88.246 E0.00362
G1 X96.738 Y88.338 E0.00453
G1 X96.492 Y88.615 E0.01163
G1 X96.296 Y88.926 E0.01151
G1 X96.212 Y89.101 E0.00609
G1 X96.096 Y89.449 E0.01151
G1 X96.037 Y89.811 E0.01151
G1 X96.030 Y90.001 E0.00596
G1 X96.037 Y90.191 E0.00596
G1 X96.096 Y90.553 E0.01151
G1 X96.212 Y90.902 E0.01151
G1 X96.296 Y91.077 E0.00609
G1 X96.492 Y91.387 E0.01151
G1 X96.738 Y91.665 E0.01163
G1 X96.849 Y91.757 E0.00453
G1 X96.793 Y91.855 E0.00356
G1 X125.651 Y108.523 E1.04492
G1 X125.869 Y108.700 E0.00881
G1 X126.140 Y109.026 E0.01330
G1 X126.328 Y109.407 E0.01332
G1 X126.400 Y109.674 E0.00865
G1 X126.429 Y109.953 E0.00881
G1 X126.414 Y110.237 E0.00890
G1 X126.311 Y110.641 E0.01307
G1 X126.192 Y110.891 E0.00868
G1 X125.938 Y111.231 E0.01331
G1 X125.615 Y111.499 E0.01317
G1 X125.238 Y111.685 E0.01319
G1 X124.824 Y111.779 E0.01330
G1 X124.547 Y111.786 E0.00867
G1 X124.273 Y111.750 E0.00866
G1 X123.867 Y111.612 E0.01345
G1 X95.002 Y94.955 E1.04495
G1 X94.944 Y95.055 E0.00362
G1 X94.808 Y95.004 E0.00453
G1 X94.449 Y94.931 E0.01149
G1 X94.256 Y94.915 E0.00609
G1 X93.889 Y94.930 E0.01151
G1 X93.525 Y95.004 E0.01163
G1 X93.199 Y95.127 E0.01092
G1 X93.011 Y95.224 E0.00666
G1 X92.711 Y95.431 E0.01140
G1 X92.566 Y95.559 E0.00609
G1 X92.323 Y95.834 E0.01151
G1 X92.126 Y96.144 E0.01151
G1 X92.043 Y96.320 E0.00609
G1 X91.927 Y96.667 E0.01149
G1 X91.903 Y96.810 E0.00453
G1 X91.790 Y96.810 E0.00355
G1 X91.783 Y130.136 E1.04492
G1 X91.704 Y130.540 E0.01290
G1 X91.593 Y130.812 E0.00922
G1 X91.449 Y131.048 E0.00866
G1 X91.171 Y131.351 E0.01288
G1 X90.934 Y131.525 E0.00924
G1 X90.688 Y131.651 E0.00865
G1 X90.293 Y131.764 E0.01289
G1 X90.000 Y131.788 E0.00921
G1 X89.707 Y131.764 E0.00921
G1 X89.312 Y131.651 E0.01289
G1 X89.066 Y131.525 E0.00865
G1 X88.829 Y131.351 E0.00924
